X: 394
T: A Thousand Farewells
R: slide
M: 12/8
K: Dmajor
dAF E2F|D2A, D3|F3 BAF|dAF E2e|
dAF E2F|D2A, D3|F3 BAF|EDC D2e||
d3 f3|afd edA|BAF DFA|dAF E2e|
d3 f3|afd edA|BdB AFA|Bdg f2e||

